X:1
T:Loch Avon
T:Loch Avon
T:Alexander Walker
C:Alexander Walker
L:1/8
M:2/2
K:F
V:1 treble 
V:1
 A | F/F/F (AF) cFAf | F/F/F (AF) B_EGE | F/F/F (AF) cFAF | faga fddf | F/F/F (AF) cFAf | %6
 F/F/F (AF) B_EGE | F/F/F (AF) cFAF | bgaf g2 g || g | fcdf cAFC | B,DA,F GG,G,g | fcdf cfAf | %13
 cc'af g2 ga | fcdf cAFC | B,AA,F GG,G,F | A,CAF Bcde | fcdB AFF || %18

